icons/akkoma.svg

<?xml version="1.0" encoding="UTF-8" standalone="no"?>
<!-- Created with Inkscape (http://www.inkscape.org/) -->

<svg
   width="200mm"
   height="200mm"
   viewBox="0 0 200 200"
   version="1.1"
   id="svg5"
   xml:space="preserve"
   inkscape:version="1.2.2 (b0a8486541, 2022-12-01)"
   sodipodi:docname="akkoma.svg"
   xmlns:inkscape="http://www.inkscape.org/namespaces/inkscape"
   xmlns:sodipodi="http://sodipodi.sourceforge.net/DTD/sodipodi-0.dtd"
   xmlns="http://www.w3.org/2000/svg"
   xmlns:svg="http://www.w3.org/2000/svg"><sodipodi:namedview
     id="namedview7"
     pagecolor="#505050"
     bordercolor="#eeeeee"
     borderopacity="1"
     inkscape:showpageshadow="0"
     inkscape:pageopacity="0"
     inkscape:pagecheckerboard="0"
     inkscape:deskcolor="#505050"
     inkscape:document-units="mm"
     showgrid="false"
     inkscape:zoom="0.67882997"
     inkscape:cx="149.52198"
     inkscape:cy="329.97954"
     inkscape:window-width="1920"
     inkscape:window-height="1011"
     inkscape:window-x="0"
     inkscape:window-y="0"
     inkscape:window-maximized="1"
     inkscape:current-layer="layer1" /><defs
     id="defs2" /><g
     inkscape:label="Layer 1"
     inkscape:groupmode="layer"
     id="layer1"><path
       style="fill:#ffffff;stroke-width:0.742757"
       d="m 29.267847,200 c -13.78892,-3.45248 -18.833063,-36.20449 -10.039883,-65.18969 0.371786,-1.22555 1.729056,-5.73779 3.016144,-10.02722 5.617119,-18.71986 13.427754,-34.333395 23.480086,-46.936911 2.180701,-2.734147 3.715253,-5.119418 3.410117,-5.300604 C 48.829173,72.364389 45.025728,70.382949 40.682219,68.142376 7.1340073,50.836738 12.922809,41.356508 57.121209,41.22053 c 23.285714,-0.07164 23.004742,0.01015 36.395069,-10.594918 2.24684,-1.779483 4.58713,-3.63257 5.20066,-4.117968 C 118.35213,10.972958 137.66283,0 145.3663,0 c 5.88645,0 6.085,0.19289547 6.085,5.9120921 0,3.3715376 -0.58317,5.3006759 -3.71379,12.2854429 -4.99828,11.151736 -7.2965,18.368851 -8.98791,28.224747 -2.17233,12.65833 -2.60838,11.504289 6.20257,16.415248 6.45349,3.59698 15.60373,9.390889 16.89772,10.699592 0.20425,0.206584 1.70833,1.35712 3.3424,2.556753 34.06191,25.006215 23.27335,37.889535 -22.96138,27.419695 -1.91943,-0.43466 -2.09667,-0.33065 -1.56705,0.91957 16.07181,37.94058 16.98506,86.17395 1.77849,93.93176 -16.13991,8.23397 -33.35618,-4.25058 -42.34995,-30.7105 C 94.191798,150.29469 94.532718,150.48942 87.606978,160.52296 74.054782,180.15641 64.480664,191.26845 57.793511,195.1255 50.095857,199.5654 36.684886,201.85708 29.267847,200 Z M 87.631458,120.68589 C 103.0621,117.43996 107.58885,110.00761 101.0624,98.63399 92.022338,82.879959 76.336557,82.336187 66.989371,97.452806 c -7.437513,12.028214 -4.67393,19.776134 8.180778,22.935514 6.710932,1.6494 6.103894,1.63491 12.461309,0.29757 z"
       id="path192" /><path
       style="fill:#000000;stroke-width:0.750577"
       id="path188"
       d="" /><path
       style="fill:#000000;stroke-width:0.750577"
       id="path186"
       d="" /></g></svg>

<?xml version="1.0" encoding="UTF-8"?>
<!-- Created with Inkscape (http://www.inkscape.org/) -->
<svg id="svg5" width="200mm" height="200mm" version="1.1" viewBox="0 0 200 200" xml:space="preserve" xmlns="http://www.w3.org/2000/svg"><g id="layer1"><path id="path192" d="m29.268 200c-13.789-3.4525-18.833-36.204-10.04-65.19 0.37179-1.2256 1.7291-5.7378 3.0161-10.027 5.6171-18.72 13.428-34.333 23.48-46.937 2.1807-2.7341 3.7153-5.1194 3.4101-5.3006-0.30514-0.18119-4.1086-2.1626-8.4521-4.4032-33.548-17.306-27.759-26.786 16.439-26.922 23.286-0.07164 23.005 0.01015 36.395-10.595 2.2468-1.7795 4.5871-3.6326 5.2007-4.118 19.635-15.535 38.946-26.508 46.649-26.508 5.8864 0 6.085 0.1929 6.085 5.9121 0 3.3715-0.58317 5.3007-3.7138 12.285-4.9983 11.152-7.2965 18.369-8.9879 28.225-2.1723 12.658-2.6084 11.504 6.2026 16.415 6.4535 3.597 15.604 9.3909 16.898 10.7 0.20425 0.20658 1.7083 1.3571 3.3424 2.5568 34.062 25.006 23.273 37.89-22.961 27.42-1.9194-0.43466-2.0967-0.33065-1.567 0.91957 16.072 37.941 16.985 86.174 1.7785 93.932-16.14 8.234-33.356-4.2506-42.35-30.71-5.9006-17.36-5.5597-17.165-12.485-7.1314-13.552 19.633-23.126 30.745-29.813 34.603-7.6977 4.4399-21.109 6.7316-28.526 4.8745zm58.364-79.314c15.431-3.2459 19.957-10.678 13.431-22.052-9.0401-15.754-24.726-16.298-34.073-1.1812-7.4375 12.028-4.6739 19.776 8.1808 22.936 6.7109 1.6494 6.1039 1.6349 12.461 0.29757z" fill="#fff" stroke-width=".74276"/></g></svg>
